public/assets/images/support_agent.svg

<svg width="24" height="25" viewBox="0 0 24 25" fill="none" xmlns="http://www.w3.org/2000/svg">
<g id="support_agent">
<g id="Vector">
<path d="M21 12.4212C21 6.93117 16.74 3.20117 12 3.20117C7.31 3.20117 3 6.85117 3 12.4812C2.4 12.8212 2 13.4612 2 14.2012V16.2012C2 17.3012 2.9 18.2012 4 18.2012H5V12.1012C5 8.23117 8.13 5.10117 12 5.10117C15.87 5.10117 19 8.23117 19 12.1012V19.2012H11V21.2012H19C20.1 21.2012 21 20.3012 21 19.2012V17.9812C21.59 17.6712 22 17.0612 22 16.3412V14.0412C22 13.3412 21.59 12.7312 21 12.4212Z" fill="#A2A2FF"/>
<path d="M9 14.2012C9.55228 14.2012 10 13.7535 10 13.2012C10 12.6489 9.55228 12.2012 9 12.2012C8.44772 12.2012 8 12.6489 8 13.2012C8 13.7535 8.44772 14.2012 9 14.2012Z" fill="#A2A2FF"/>
<path d="M15 14.2012C15.5523 14.2012 16 13.7535 16 13.2012C16 12.6489 15.5523 12.2012 15 12.2012C14.4477 12.2012 14 12.6489 14 13.2012C14 13.7535 14.4477 14.2012 15 14.2012Z" fill="#A2A2FF"/>
<path d="M18 11.2312C17.52 8.38117 15.04 6.20117 12.05 6.20117C9.02 6.20117 5.76 8.71117 6.02 12.6512C8.49 11.6412 10.35 9.44117 10.88 6.76117C12.19 9.39117 14.88 11.2012 18 11.2312Z" fill="#A2A2FF"/>
</g>
</g>
</svg>

<svg width="24" height="25" fill="none" xmlns="http://www.w3.org/2000/svg"><g fill="#A2A2FF"><path d="M21 12.421c0-5.49-4.26-9.22-9-9.22-4.69 0-9 3.65-9 9.28-.6.34-1 .98-1 1.72v2c0 1.1.9 2 2 2h1v-6.1c0-3.87 3.13-7 7-7s7 3.13 7 7v7.1h-8v2h8c1.1 0 2-.9 2-2v-1.22c.59-.31 1-.92 1-1.64v-2.3c0-.7-.41-1.31-1-1.62z"/><path d="M9 14.201a1 1 0 100-2 1 1 0 000 2zM15 14.201a1 1 0 100-2 1 1 0 000 2z"/><path d="M18 11.231a6.04 6.04 0 00-5.95-5.03c-3.03 0-6.29 2.51-6.03 6.45a8.075 8.075 0 004.86-5.89c1.31 2.63 4 4.44 7.12 4.47z"/></g></svg>
